src/images/external_link_icon.svg

<svg height="72" viewBox="0 0 72 72" width="72" xmlns="http://www.w3.org/2000/svg"><g fill="#fff"><path d="m4.8 71.1h56c2.2 0 4-1.8 4-4v-32h-8v28h-48v-48h28v-8h-32c-2.2 0-4 1.8-4 4v56c0 2.2 1.8 4 4 4z"/><path d="m31.7 34.7 5.6 5.6 25.9-25.8v8.7h8v-22.3h-22.4v8h8.7z"/></g></svg>

<?xml version="1.0" encoding="UTF-8"?>
<svg width="72px" height="72px" viewBox="0 0 72 72" version="1.1" xmlns="http://www.w3.org/2000/svg" xmlns:xlink="http://www.w3.org/1999/xlink">
    <!-- Generator: Sketch 55.2 (78181) - https://sketchapp.com -->
    <title>external link</title>
    <desc>Created with Sketch.</desc>
    <g id="Page-1" stroke="none" stroke-width="1" fill="none" fill-rule="evenodd">
        <g id="various" transform="translate(-287.000000, -278.000000)" fill="#FFFFFF" fill-rule="nonzero">
            <g id="external-link" transform="translate(287.000000, 278.000000)">
                <path d="M4.8,71.1 L60.8,71.1 L60.8,71.1 C63,71.1 64.8,69.3 64.8,67.1 L64.8,35.1 L56.8,35.1 L56.8,63.1 L8.8,63.1 L8.8,15.1 L36.8,15.1 L36.8,7.1 L4.8,7.1 L4.8,7.1 C2.6,7.1 0.8,8.9 0.8,11.1 L0.8,67.1 C0.8,69.3 2.6,71.1 4.8,71.1 Z" id="Path"></path>
                <polygon id="Path" points="31.7 34.7 37.3 40.3 63.2 14.5 63.2 23.2 71.2 23.2 71.2 0.9 48.8 0.9 48.8 8.9 57.5 8.9"></polygon>
            </g>
        </g>
    </g>
</svg>
